tools/download-figma-icons/icons/outlined-large/emobility.svg

<svg width="64" height="65" viewBox="0 0 64 65" fill="none" xmlns="http://www.w3.org/2000/svg">
<path fill-rule="evenodd" clip-rule="evenodd" d="M22.293 61.003H16.22V51.003H22.293C25.05 51.003 27.293 53.246 27.293 56.003C27.293 58.76 25.05 61.003 22.293 61.003ZM48.736 31.772H44.58H36.41H15.25H7.079H3V21.192L6.332 19H45.404L48.736 21.192V31.772ZM43.08 38.573C43.08 39.999 41.921 41.158 40.495 41.158C39.069 41.158 37.91 39.999 37.91 38.573V34.772H43.08V38.573ZM13.75 38.573C13.75 39.999 12.59 41.158 11.164 41.158C9.738 41.158 8.579 39.999 8.579 38.573V34.772H13.75V38.573ZM13.341 3H38.396L43.636 16H8.108L13.341 3ZM59.5 24.382H51.736V20.384C51.736 19.879 51.482 19.408 51.061 19.131L47.075 16.509L40.8 0.94C40.57 0.372 40.021 0 39.408 0H12.328C11.716 0 11.165 0.372 10.937 0.94L4.673 16.501L0.676 19.131C0.254 19.408 0 19.879 0 20.384V33.272C0 34.1 0.672 34.772 1.5 34.772H5.579V38.573C5.579 41.652 8.085 44.158 11.164 44.158C14.244 44.158 16.75 41.652 16.75 38.573V34.772H34.91V38.573C34.91 41.652 37.416 44.158 40.495 44.158C43.574 44.158 46.08 41.652 46.08 38.573V34.772H50.236C51.064 34.772 51.736 34.1 51.736 33.272V27.382H59.5C60.327 27.382 61 28.055 61 28.882V53.003C61 53.83 60.327 54.503 59.5 54.503H30.147C29.442 50.807 26.191 48.003 22.293 48.003H14.72C13.892 48.003 13.22 48.675 13.22 49.503V51.003H8.22C7.392 51.003 6.72 51.675 6.72 52.503C6.72 53.331 7.392 54.003 8.22 54.003H13.22V58.003H8.22C7.392 58.003 6.72 58.675 6.72 59.503C6.72 60.331 7.392 61.003 8.22 61.003H13.22V62.503C13.22 63.331 13.892 64.003 14.72 64.003H22.293C26.191 64.003 29.442 61.199 30.147 57.503H59.5C61.981 57.503 64 55.484 64 53.003V28.882C64 26.4 61.981 24.382 59.5 24.382ZM13.999 24.3663H8.329C7.501 24.3663 6.829 25.0383 6.829 25.8663C6.829 26.6943 7.501 27.3663 8.329 27.3663H13.999C14.827 27.3663 15.499 26.6943 15.499 25.8663C15.499 25.0383 14.827 24.3663 13.999 24.3663ZM37.6601 24.3965H43.3301C44.1581 24.3965 44.8301 25.0685 44.8301 25.8965C44.8301 26.7245 44.1581 27.3965 43.3301 27.3965H37.6601C36.8321 27.3965 36.1601 26.7245 36.1601 25.8965C36.1601 25.0685 36.8321 24.3965 37.6601 24.3965Z" fill="black"/>
</svg>

<svg width="64" height="65" viewBox="0 0 64 65" fill="none" xmlns="http://www.w3.org/2000/svg"><path fill-rule="evenodd" clip-rule="evenodd" d="M22.293 61.003H16.22v-10h6.073c2.757 0 5 2.243 5 5s-2.243 5-5 5Zm26.443-29.231H3v-10.58L6.332 19h39.072l3.332 2.192v10.58Zm-5.656 6.801a2.587 2.587 0 0 1-2.585 2.585 2.587 2.587 0 0 1-2.585-2.585v-3.801h5.17v3.801Zm-29.33 0a2.588 2.588 0 0 1-2.586 2.585 2.587 2.587 0 0 1-2.585-2.585v-3.801h5.171v3.801ZM13.341 3h25.055l5.24 13H8.108l5.233-13ZM59.5 24.382h-7.764v-3.998a1.5 1.5 0 0 0-.675-1.253l-3.986-2.622L40.8.94A1.501 1.501 0 0 0 39.408 0h-27.08c-.612 0-1.163.372-1.391.94L4.673 16.501l-3.997 2.63A1.499 1.499 0 0 0 0 20.384v12.888a1.5 1.5 0 0 0 1.5 1.5h4.079v3.801a5.592 5.592 0 0 0 5.585 5.585 5.592 5.592 0 0 0 5.586-5.585v-3.801h18.16v3.801a5.592 5.592 0 0 0 5.585 5.585 5.592 5.592 0 0 0 5.585-5.585v-3.801h4.156a1.5 1.5 0 0 0 1.5-1.5v-5.89H59.5c.827 0 1.5.673 1.5 1.5v24.121c0 .827-.673 1.5-1.5 1.5H30.147c-.705-3.696-3.956-6.5-7.854-6.5H14.72a1.5 1.5 0 0 0-1.5 1.5v1.5h-5a1.5 1.5 0 0 0 0 3h5v4h-5a1.5 1.5 0 0 0 0 3h5v1.5a1.5 1.5 0 0 0 1.5 1.5h7.573c3.898 0 7.149-2.804 7.854-6.5H59.5c2.481 0 4.5-2.019 4.5-4.5V28.882c0-2.482-2.019-4.5-4.5-4.5Zm-45.501-.016h-5.67a1.5 1.5 0 0 0 0 3h5.67a1.5 1.5 0 0 0 0-3Zm23.661.03h5.67a1.5 1.5 0 0 1 0 3h-5.67a1.5 1.5 0 0 1 0-3Z" fill="currentColor"/></svg>
